X:175
T: ES WOLLT EIN JAEGER FRUEH AUFSTEHN
N: K2356
O: Europa, Mitteleuropa, Deutschland, Oberdiebach am Rhein
R: Kinder - Lied, Reigen, Tanz - Spiel, Ballade
M: 3/4
L: 1/16
K: G
d2 | d2d2B4d4 | c2B2A4z2
c2 | c2B2A4e4 | d2d2G4z2
d2 | d2d2B4d4 | c2B2A4z2
d2 | d2d2d4d4 | c2B2A4z2
d2 | d2d2B4d4 | c2B2A4z2
c2 | c2B2A4e4 | d2dFG4z2
d2 | d2d2B4d4 | c2B2A4z2
c2 | c2B2A4e4 | d2dFG4z2

